src/assets/iconGardens.svg

<svg width="27" height="27" viewBox="0 0 27 27" fill="none" xmlns="http://www.w3.org/2000/svg">
<circle cx="13.5" cy="13.5" r="13.5" fill="#FFEB6F"/>
<g filter="url(#filter0_i)">
<path d="M13.5009 26.2076C20.5186 26.2076 26.2076 20.5186 26.2076 13.5009C26.2076 6.48312 20.5186 0.794128 13.5009 0.794128C6.48312 0.794128 0.794128 6.48312 0.794128 13.5009C0.794128 20.5186 6.48312 26.2076 13.5009 26.2076Z" fill="url(#paint0_linear)"/>
<path d="M13.5009 26.2076C20.5186 26.2076 26.2076 20.5186 26.2076 13.5009C26.2076 6.48312 20.5186 0.794128 13.5009 0.794128C6.48312 0.794128 0.794128 6.48312 0.794128 13.5009C0.794128 20.5186 6.48312 26.2076 13.5009 26.2076Z" fill="url(#paint1_linear)" fill-opacity="0.2" style="mix-blend-mode:soft-light"/>
</g>
<path opacity="0.4" d="M23.4917 21.3457C19.2962 21.1851 15.9445 17.7353 15.9445 13.5008C15.9445 9.26639 19.2962 5.8166 23.4917 5.65594C25.1912 7.81714 26.2076 10.5398 26.2076 13.5008C26.2076 16.4619 25.1896 19.1845 23.4917 21.3457Z" fill="#FFEB6F"/>
<path opacity="0.2" d="M11.0894 13.5009C11.0894 8.31604 14.1959 3.86006 18.6468 1.88489C20.556 2.73212 22.2149 4.03424 23.49 5.65598C19.2944 5.81663 15.9427 9.26642 15.9427 13.5009C15.9427 17.7353 19.2944 21.1851 23.49 21.3458C22.2149 22.9675 20.556 24.2696 18.6468 25.1169C14.1959 23.14 11.0894 18.684 11.0894 13.5009Z" fill="#FFEB6F"/>
<path opacity="0.2" d="M15.9107 13.5009C15.9107 8.31604 12.8042 3.86006 8.35324 1.88489C6.44402 2.73212 4.78508 4.03424 3.51001 5.65598C7.70556 5.81663 11.0573 9.26642 11.0573 13.5009C11.0573 17.7353 7.70556 21.1851 3.51001 21.3458C4.78508 22.9675 6.44402 24.2696 8.35324 25.1169C12.8042 23.14 15.9107 18.684 15.9107 13.5009Z" fill="#FFEB6F"/>
<path opacity="0.4" d="M3.50999 21.3457C7.70555 21.1851 11.0573 17.7353 11.0573 13.5008C11.0573 9.26637 7.70555 5.81489 3.50999 5.65424C1.81046 7.81543 0.794128 10.5381 0.794128 13.5008C0.794128 16.4636 1.81046 19.1845 3.50999 21.3457Z" fill="#FFEB6F"/>
<defs>
<filter id="filter0_i" x="0.794128" y="0.794128" width="25.7576" height="25.7576" filterUnits="userSpaceOnUse" color-interpolation-filters="sRGB">
<feFlood flood-opacity="0" result="BackgroundImageFix"/>
<feBlend mode="normal" in="SourceGraphic" in2="BackgroundImageFix" result="shape"/>
<feColorMatrix in="SourceAlpha" type="matrix" values="0 0 0 0 0 0 0 0 0 0 0 0 0 0 0 0 0 0 127 0" result="hardAlpha"/>
<feOffset dx="0.3441" dy="0.3441"/>
<feGaussianBlur stdDeviation="0.17205"/>
<feComposite in2="hardAlpha" operator="arithmetic" k2="-1" k3="1"/>
<feColorMatrix type="matrix" values="0 0 0 0 1 0 0 0 0 1 0 0 0 0 1 0 0 0 0.2 0"/>
<feBlend mode="normal" in2="shape" result="effect1_innerShadow"/>
</filter>
<linearGradient id="paint0_linear" x1="13.5009" y1="0.794128" x2="13.5009" y2="26.2076" gradientUnits="userSpaceOnUse">
<stop stop-color="#FFFEEB"/>
<stop offset="1" stop-color="#FFDD11"/>
</linearGradient>
<linearGradient id="paint1_linear" x1="13.5009" y1="0.794128" x2="13.5009" y2="26.2076" gradientUnits="userSpaceOnUse">
<stop offset="0.328125" stop-color="white"/>
<stop offset="1" stop-opacity="0.1"/>
</linearGradient>
</defs>
</svg>

<svg width="27" height="27" fill="none" xmlns="http://www.w3.org/2000/svg"><circle cx="13.5" cy="13.5" r="13.5" fill="#FFEB6F"/><g filter="url(#filter0_i)"><path d="M13.5 26.208c7.019 0 12.708-5.69 12.708-12.707C26.208 6.483 20.518.794 13.5.794 6.483.794.794 6.484.794 13.501c0 7.018 5.69 12.707 12.707 12.707z" fill="url(#paint0_linear)"/><path d="M13.5 26.208c7.019 0 12.708-5.69 12.708-12.707C26.208 6.483 20.518.794 13.5.794 6.483.794.794 6.484.794 13.501c0 7.018 5.69 12.707 12.707 12.707z" fill="url(#paint1_linear)" fill-opacity=".2" style="mix-blend-mode:soft-light"/></g><path opacity=".4" d="M23.492 21.346a7.851 7.851 0 010-15.69 12.647 12.647 0 012.716 7.845c0 2.96-1.018 5.684-2.716 7.845z" fill="#FFEB6F"/><path opacity=".2" d="M11.09 13.5c0-5.184 3.106-9.64 7.557-11.615 1.909.847 3.568 2.15 4.843 3.771a7.851 7.851 0 000 15.69 12.74 12.74 0 01-4.843 3.77c-4.451-1.976-7.558-6.432-7.558-11.615z" fill="#FFEB6F"/><path opacity=".2" d="M15.91 13.5c0-5.184-3.106-9.64-7.557-11.615A12.738 12.738 0 003.51 5.656a7.851 7.851 0 010 15.69 12.74 12.74 0 004.843 3.77c4.451-1.976 7.558-6.432 7.558-11.615z" fill="#FFEB6F"/><path opacity=".4" d="M3.51 21.346a7.851 7.851 0 000-15.692 12.648 12.648 0 00-2.716 7.847c0 2.963 1.016 5.684 2.716 7.845z" fill="#FFEB6F"/><defs><linearGradient id="paint0_linear" x1="13.501" y1=".794" x2="13.501" y2="26.208" gradientUnits="userSpaceOnUse"><stop stop-color="#FFFEEB"/><stop offset="1" stop-color="#FD1"/></linearGradient><linearGradient id="paint1_linear" x1="13.501" y1=".794" x2="13.501" y2="26.208" gradientUnits="userSpaceOnUse"><stop offset=".328" stop-color="#fff"/><stop offset="1" stop-opacity=".1"/></linearGradient><filter id="filter0_i" x=".794" y=".794" width="25.758" height="25.758" filterUnits="userSpaceOnUse" color-interpolation-filters="sRGB"><feFlood flood-opacity="0" result="BackgroundImageFix"/><feBlend in="SourceGraphic" in2="BackgroundImageFix" result="shape"/><feColorMatrix in="SourceAlpha" values="0 0 0 0 0 0 0 0 0 0 0 0 0 0 0 0 0 0 127 0" result="hardAlpha"/><feOffset dx=".344" dy=".344"/><feGaussianBlur stdDeviation=".172"/><feComposite in2="hardAlpha" operator="arithmetic" k2="-1" k3="1"/><feColorMatrix values="0 0 0 0 1 0 0 0 0 1 0 0 0 0 1 0 0 0 0.2 0"/><feBlend in2="shape" result="effect1_innerShadow"/></filter></defs></svg>
